X:1
T:Oró, Sé Do Bheatha 'Bhaile
T:Oró, Sé Do Bheatha 'Bhaile
T:Rebel Song
C:Rebel Song
L:1/8
M:4/4
K:D
V:1 treble 
V:1
 e4 (3efe de | f2 e2 (3ded B2 | d4 d2 de | (3ded A2 B d3 | x8 | E2 ED E2 GA | BF AF DE FA | %7
 BA Bd de ed | Bd AF AE FD | e4 (3efe de | f2 e2 f a3 | b2 f2 a2 f2 | e4 e4 |] %13

